X: 2
T: Maire Rua
R: slip jig
M: 9/8
L: 1/8
K: Gmaj
D2G GAG FGA|B3 GAB c[Bd][Ae]|D2G GAG FGA|1BdB cAF GEG:|2BdB cAF Gdc||~d3 cAG FED|ded cAB c3|~d3 cAG FGA|1BdB cAF Gde:|2BdB cAF GEG||


Tune 993	Setting 993

